public/assets/images/elements/discover.svg

<svg xmlns="http://www.w3.org/2000/svg" width="780" height="501" viewBox="0 0 780 501">
  <g fill="none" fill-rule="evenodd">
    <path fill="#4D4D4D" d="M54.992188,0 C24.626565,0 -4.7369516e-15,24.629374 0,55.003906 L0,445.99609 C0,476.37636 24.618673,501 54.992188,501 L725.00781,501 C755.37344,501 780,476.37062 780,445.99609 L780,268.55664 L780,55.003906 C780,24.623637 755.38133,-4.7369516e-15 725.00781,0 L54.992188,0 L54.992188,0 L54.992188,0 Z"/>
    <path fill="#FFFFFF" d="M327.15234,161.89258 C335.9889,161.89258 343.40028,163.67723 352.41992,167.98242 L352.41992,190.73438 C343.87628,182.87089 336.46483,179.58008 326.66406,179.58008 C307.4002,179.58008 292.25,194.59455 292.25,213.63086 C292.25,233.70517 306.93133,247.82617 327.61914,247.82617 C336.93171,247.82617 344.20582,244.70584 352.41992,236.96875 L352.41992,259.73242 C343.07888,263.87291 335.50876,265.50781 326.66406,265.50781 C295.38621,265.50781 271.08203,242.91198 271.08203,213.77148 C271.08203,184.94507 296.03316,161.89258 327.15234,161.89258 L327.15234,161.89258 L327.15234,161.89258 Z M230.03906,162.51953 C241.58477,162.51953 252.14952,166.24004 260.98242,173.51367 L250.23438,186.76172 C244.88362,181.11594 239.82337,178.73438 233.66992,178.73438 C224.81668,178.73437 218.36914,183.47936 218.36914,189.72266 C218.36914,195.07734 221.98883,197.91138 234.31445,202.20508 C257.67927,210.24859 264.60352,217.3809 264.60352,233.13086 C264.60352,252.32421 249.62806,265.68359 228.2832,265.68359 C212.65323,265.68359 201.29008,259.88895 191.82617,246.8125 L205.09375,234.78125 C209.82489,243.39164 217.71615,248.00391 227.51367,248.00391 C236.67693,248.00391 243.46094,242.05155 243.46094,234.01953 C243.46094,229.85606 241.40612,226.28585 237.30273,223.76172 C235.2368,222.56668 231.1447,220.78491 223.10352,218.11523 C203.81198,211.57701 197.19336,204.58834 197.19336,190.92969 C197.19336,174.70478 211.40702,162.51953 230.03906,162.51953 L230.03906,162.51953 L230.03906,162.51953 Z M464.76172,164.24805 L487.19922,164.24805 L515.2832,230.83984 L543.72852,164.24805 L565.99609,164.24805 L520.50195,265.93359 L509.44922,265.93359 L464.76172,164.24805 L464.76172,164.24805 L464.76172,164.24805 Z M67.414062,164.40039 L97.564453,164.40039 C130.87609,164.40039 154.09766,184.78179 154.09766,214.04102 C154.09766,228.63041 146.99364,242.73654 134.98047,252.09766 C124.87172,259.99945 113.35396,263.54297 97.40625,263.54297 L67.414062,263.54297 L67.414062,164.40039 L67.414062,164.40039 L67.414062,164.40039 Z M163.54883,164.40039 L184.08984,164.40039 L184.08984,263.54297 L163.54883,263.54297 L163.54883,164.40039 L163.54883,164.40039 L163.54883,164.40039 Z M575.2832,164.40039 L633.53516,164.40039 L633.53516,181.19922 L595.80859,181.19922 L595.80859,203.20508 L632.14453,203.20508 L632.14453,219.99609 L595.80859,219.99609 L595.80859,246.75781 L633.53516,246.75781 L633.53516,263.54297 L575.2832,263.54297 L575.2832,164.40039 L575.2832,164.40039 L575.2832,164.40039 Z M647.14062,164.40039 L677.5957,164.40039 C701.28599,164.40039 714.86133,175.11052 714.86133,193.67188 C714.86133,208.85113 706.34712,218.81273 690.875,221.77734 L724.02344,263.54297 L698.76367,263.54297 L670.33398,223.71484 L667.65625,223.71484 L667.65625,263.54297 L647.14062,263.54297 L647.14062,164.40039 L647.14062,164.40039 L647.14062,164.40039 Z M667.65625,180.01562 L667.65625,210.04102 L673.6582,210.04102 C686.77472,210.04102 693.72656,204.67918 693.72656,194.71289 C693.72656,185.06451 686.77347,180.01562 673.98242,180.01562 L667.65625,180.01562 L667.65625,180.01562 L667.65625,180.01562 Z M87.939453,181.19922 L87.939453,246.75781 L93.451172,246.75781 C106.72432,246.75781 115.10685,244.36382 121.56055,238.87891 C128.66438,232.92288 132.9375,223.41276 132.9375,213.89844 C132.9375,204.39943 128.66438,195.17283 121.56055,189.2168 C114.77608,183.43696 106.72432,181.19922 93.451172,181.19922 L87.939453,181.19922 L87.939453,181.19922 L87.939453,181.19922 Z"/>
    <path fill="#F47216" d="M415.13086 161.21289C446.07103 161.21289 471.15234 184.79287 471.15234 213.92188L471.15234 213.95508C471.15234 243.08408 446.07103 266.69727 415.13086 266.69727 384.19069 266.69727 359.10938 243.08408 359.10938 213.95508L359.10938 213.92188C359.10938 184.79287 384.19069 161.21289 415.13086 161.21289L415.13086 161.21289 415.13086 161.21289zM779.981917 288.361069C753.932037 306.691919 558.904907 437.700579 221.228007 500.98412L724.989727 500.98412C755.355357 500.98412 779.981917 476.35474 779.981917 445.980209L779.981917 288.361069 779.981917 288.361069 779.981917 288.361069z"/>
  </g>
</svg>

<svg xmlns="http://www.w3.org/2000/svg" width="780" height="501" viewBox="0 0 780 501"><g fill="none" fill-rule="evenodd"><path fill="#4D4D4D" d="M54.992 0C24.627 0 0 24.63 0 55.004v390.992C0 476.376 24.619 501 54.992 501h670.016C755.373 501 780 476.37 780 445.996V55.004C780 24.624 755.381 0 725.008 0H54.992z"/><path fill="#FFF" d="M327.152 161.893c8.837 0 16.248 1.784 25.268 6.09v22.751c-8.544-7.863-15.955-11.154-25.756-11.154-19.264 0-34.414 15.015-34.414 34.05 0 20.075 14.681 34.196 35.37 34.196 9.312 0 16.586-3.12 24.8-10.857v22.763c-9.341 4.14-16.911 5.776-25.756 5.776-31.278 0-55.582-22.596-55.582-51.737 0-28.826 24.951-51.878 56.07-51.878zm-97.113.627c11.546 0 22.11 3.72 30.943 10.994l-10.748 13.248c-5.35-5.646-10.41-8.028-16.564-8.028-8.853 0-15.3 4.745-15.3 10.989 0 5.354 3.619 8.188 15.944 12.482 23.365 8.044 30.29 15.176 30.29 30.926 0 19.193-14.976 32.553-36.32 32.553-15.63 0-26.994-5.795-36.458-18.872l13.268-12.03c4.73 8.61 12.622 13.222 22.42 13.222 9.163 0 15.947-5.952 15.947-13.984 0-4.164-2.055-7.734-6.158-10.258-2.066-1.195-6.158-2.977-14.2-5.647-19.291-6.538-25.91-13.527-25.91-27.185 0-16.225 14.214-28.41 32.846-28.41zm234.723 1.728h22.437l28.084 66.592 28.446-66.592h22.267l-45.494 101.686h-11.053l-44.687-101.686zm-397.348.152h30.15c33.312 0 56.534 20.382 56.534 49.641 0 14.59-7.104 28.696-19.118 38.057-10.108 7.901-21.626 11.445-37.574 11.445H67.414V164.4zm96.135 0h20.54v99.143h-20.54V164.4zm411.734 0h58.252v16.8H595.81v22.005h36.336v16.791H595.81v26.762h37.726v16.785h-58.252V164.4zm71.858 0h30.455c23.69 0 37.265 10.71 37.265 29.272 0 15.18-8.514 25.14-23.986 28.105l33.148 41.766h-25.26l-28.429-39.828h-2.678v39.828h-20.515V164.4zm20.515 15.616v30.025h6.002c13.117 0 20.069-5.362 20.069-15.328 0-9.648-6.954-14.697-19.745-14.697h-6.326zM87.94 181.199v65.559h5.512c13.273 0 21.656-2.394 28.11-7.88 7.103-5.955 11.376-15.465 11.376-24.98 0-9.499-4.273-18.725-11.376-24.681-6.785-5.78-14.837-8.018-28.11-8.018H87.94z"/><path fill="#F47216" d="M415.13 161.213c30.941 0 56.022 23.58 56.022 52.709v.033c0 29.13-25.081 52.742-56.021 52.742s-56.022-23.613-56.022-52.742v-.033c0-29.13 25.082-52.71 56.022-52.71zM779.983 288.36c-26.05 18.33-221.077 149.34-558.754 212.623H724.99c30.365 0 54.992-24.63 54.992-55.004V288.361z"/></g></svg>
